X: 1
T: Neil Of The Glenties
M: 4/4
L: 1/8
R: barndance
K: Dmaj
d2 (3edc dFFA | GEEG FD D2 | dfec dFFA |1 (3GFE AG FD D2 :|2 (3GFE ce d4 ||
fgaf defd | cdef gece | fgaf defd | AFGE FD D2 |
fgaf defd | cded g4 | f2 ec defd | AFGE FD D2 |
